src/Pure-Dark/16/symbolic/places/folder-remote-symbolic.svg

<svg width="16" height="16" version="1.1" xmlns="http://www.w3.org/2000/svg">
 <defs>
  <style id="current-color-scheme" type="text/css">.ColorScheme-Text { color:#f2f2f2; }</style>
 </defs>
 <path d="m2 0c-1.108 0-2 0.892-2 2v10c0 1.108 0.892 2 2 2h5.5v1h-7.5v1h16v-1h-7.5v-1h5.5c1.108 0 2-0.892 2-2v-8c0-1.108-0.892-2-2-2h-6l-2-2h-4zm0 1h3.5859l1.4961 1.5039-1.4961 1.4961h-4.5859v-2c0-0.554 0.446-1 1-1zm6 2h6c0.554 0 1 0.446 1 1v8c0 0.554-0.446 1-1 1h-12c-0.554 0-1-0.446-1-1v-7h5l2-2z" fill="#f2f2f2"/>
</svg>

<?xml version="1.0" encoding="UTF-8" standalone="no"?>
<!-- Created with Inkscape (http://www.inkscape.org/) -->

<svg
   width="16"
   height="16"
   viewBox="0 0 16 16"
   version="1.1"
   id="svg5"
   inkscape:version="1.4.2 (ebf0e940d0, 2025-05-08)"
   sodipodi:docname="folder-remote-symbolic.svg"
   xmlns:inkscape="http://www.inkscape.org/namespaces/inkscape"
   xmlns:sodipodi="http://sodipodi.sourceforge.net/DTD/sodipodi-0.dtd"
   xmlns="http://www.w3.org/2000/svg"
   xmlns:svg="http://www.w3.org/2000/svg">
  <sodipodi:namedview
     id="namedview7"
     pagecolor="#ffffff"
     bordercolor="#666666"
     borderopacity="1.0"
     inkscape:showpageshadow="2"
     inkscape:pageopacity="0.0"
     inkscape:pagecheckerboard="0"
     inkscape:deskcolor="#d1d1d1"
     inkscape:document-units="px"
     showgrid="false"
     showguides="false"
     inkscape:zoom="48.5"
     inkscape:cx="8.0309278"
     inkscape:cy="8.0103093"
     inkscape:window-width="1920"
     inkscape:window-height="1010"
     inkscape:window-x="0"
     inkscape:window-y="0"
     inkscape:window-maximized="1"
     inkscape:current-layer="svg5" />
  <defs
     id="defs2">
    <style
       id="current-color-scheme"
       type="text/css">
        .ColorScheme-Text { color:#f2f2f2; }
     </style>
  </defs>
  <path
     id="path4102"
     style="fill:currentColor;fill-opacity:1;stroke-width:1.5;stroke-linecap:round;stroke-linejoin:round;paint-order:stroke fill markers"
     class="ColorScheme-Text"
     d="M 2 0 C 0.89200004 0 0 0.892 0 2 L 0 12 C 0 13.108 0.89200004 14 2 14 L 7 14 L 7 15 L 0 15 L 0 16 L 16 16 L 16 15 L 8 15 L 8 14 L 14 14 C 15.108 14 16 13.108 16 12 L 16 4 C 16 2.892 15.108 2 14 2 L 8 2 L 6 0 L 2 0 z M 2 1 L 5.5859375 1 L 7.0820312 2.5039062 L 5.5859375 4 L 1 4 L 1 2 C 1 1.446 1.446 1 2 1 z M 8 3 L 14 3 C 14.554 3 15 3.446 15 4 L 15 12 C 15 12.554 14.554 13 14 13 L 2 13 C 1.446 13 1 12.554 1 12 L 1 5 L 6 5 L 8 3 z " />
</svg>
